packages/kaspersky-hexa-ui-icons/src/iconsSVGs/24/Sort2.svg

<svg width="24" height="24" viewBox="0 0 24 24" fill="none" xmlns="http://www.w3.org/2000/svg">
<path fill-rule="evenodd" clip-rule="evenodd" d="M2 6C2 5.44772 2.44772 5 3 5H21C21.5523 5 22 5.44772 22 6C22 6.55228 21.5523 7 21 7H3C2.44772 7 2 6.55228 2 6ZM2 12C2 11.4477 2.44772 11 3 11H9H15C15.5523 11 16 11.4477 16 12C16 12.5523 15.5523 13 15 13H3C2.44772 13 2 12.5523 2 12ZM2 18C2 17.4477 2.44772 17 3 17H9C9.55228 17 10 17.4477 10 18C10 18.5523 9.55228 19 9 19H3C2.44772 19 2 18.5523 2 18Z" fill="black"/>
</svg>

<svg xmlns="http://www.w3.org/2000/svg" width="24" height="24" fill="none" viewBox="0 0 24 24"><path fill="#000" fill-rule="evenodd" d="M2 6c0-.5523.4477-1 1-1h18c.5523 0 1 .4477 1 1s-.4477 1-1 1H3c-.5523 0-1-.4477-1-1m0 6c0-.5523.4477-1 1-1h12c.5523 0 1 .4477 1 1s-.4477 1-1 1H3c-.5523 0-1-.4477-1-1m0 6c0-.5523.4477-1 1-1h6c.5523 0 1 .4477 1 1s-.4477 1-1 1H3c-.5523 0-1-.4477-1-1"/></svg>
